X: 14
T:Within Tradition
R:Reel
M:4/4
L:1/8
N:Bruce Johnson
H:Chribob-Jacker Music, Ron Spears Within
Tradition, Copper Creek CD 0192
K:G
|z4z3>(3(D/2E/2F/2)|:|G2BG AGBG|CGBG [c4G4]|BdBd
AGEF|GDEG D3 (3(D/2E/2F/2)|
|G2BG AGBG|DGBG [c4G4]|BdBd AGEF|1 GEDB,
G,3(3(D/2E/2/F/2):|2 GEDB, G,3 (3(A/2B/2c/2)|
|:d2 gg eggd|gabg aged|Bdeg edBc|dABd A3
(3(A/2B/2c/)|d2 gg eggd|
|gabg aged|BcdA BdAF|1 EDB,A, G,3
(3(A/2B/2c/2):|2EDB,A, G,4|]

